assets/layers/street_lamps/street_lamp.svg

<?xml version="1.0" encoding="UTF-8" standalone="yes"?>
<svg xmlns="http://www.w3.org/2000/svg" xmlns:xlink="http://www.w3.org/1999/xlink" width="375px" height="375px" viewBox="0 0 375 375" version="1.1">
  <defs>
    <filter id="alpha" filterUnits="objectBoundingBox" x="0%" y="0%" width="100%" height="100%">
      <feColorMatrix type="matrix" in="SourceGraphic" values="0 0 0 0 1 0 0 0 0 1 0 0 0 0 1 0 0 0 1 0"/>
    </filter>
    <mask id="mask0">
      <g filter="url(#alpha)">
        <rect x="0" y="0" width="375" height="375" style="fill:rgb(0%,0%,0%);fill-opacity:0.3;stroke:none;"/>
      </g>
    </mask>
    <clipPath id="clip1">
      <rect x="0" y="0" width="375" height="375"/>
    </clipPath>
    <g id="surface5" clip-path="url(#clip1)">
      <path style="fill:none;stroke-width:2;stroke-linecap:butt;stroke-linejoin:round;stroke:rgb(100%,100%,100%);stroke-opacity:1;stroke-miterlimit:4;" d="M 9 0.999938 C 8.000063 0.999938 6.999938 2.499938 6 5.000063 L 5.000063 5.000063 L 5.000063 6 L 6 6 L 6.999938 9.999937 L 8.000063 11.000063 L 8.000063 12 L 6 12 L 6 12.999937 L 8.000063 12.999937 L 8.000063 17.000063 L 9.999937 17.000063 L 9.999937 12.999937 L 12 12.999937 L 12 12 L 9.999937 12 L 9.999937 11.000063 L 11.000063 9.999937 L 12 6 L 12.999937 6 L 12.999937 5.000063 L 12 5.000063 C 11.000063 2.499938 9.999937 0.999938 9 0.999938 Z M 6.999938 6 L 11.000063 6 L 9.999937 9.999937 L 8.000063 9.999937 Z M 6.999938 6 " transform="matrix(20.833333,0,0,20.833333,0,0)"/>
    </g>
  </defs>
  <g id="surface1">
    <use xlink:href="#surface5" mask="url(#mask0)"/>
    <path style=" stroke:none;fill-rule:nonzero;fill:rgb(45.490196%,45.490196%,45.490196%);fill-opacity:1;" d="M 187.5 20.832031 C 166.667969 20.832031 145.832031 52.082031 125 104.167969 L 104.167969 104.167969 L 104.167969 125 L 125 125 L 145.832031 208.332031 L 166.667969 229.167969 L 166.667969 250 L 125 250 L 125 270.832031 L 166.667969 270.832031 L 166.667969 354.167969 L 208.332031 354.167969 L 208.332031 270.832031 L 250 270.832031 L 250 250 L 208.332031 250 L 208.332031 229.167969 L 229.167969 208.332031 L 250 125 L 270.832031 125 L 270.832031 104.167969 L 250 104.167969 C 229.167969 52.082031 208.332031 20.832031 187.5 20.832031 Z M 145.832031 125 L 229.167969 125 L 208.332031 208.332031 L 166.667969 208.332031 Z M 145.832031 125 "/>
  </g>
</svg>

<svg width="18" height="18" xmlns="http://www.w3.org/2000/svg">
    <path d="m9 1c-1 0-2 1.5-3 4h-1v1h1l1 4 1 1v1h-2v1h2v4h2v-4h2v-1h-2v-1l1-1 1-4h1v-1h-1c-1-2.5-2-4-3-4zm-2 5h4l-1 4h-2z"
          fill="none" opacity=".3" stroke="#fff" stroke-linejoin="round" stroke-width="2"/>
    <path d="m9 1c-1 0-2 1.5-3 4h-1v1h1l1 4 1 1v1h-2v1h2v4h2v-4h2v-1h-2v-1l1-1 1-4h1v-1h-1c-1-2.5-2-4-3-4zm-2 5h4l-1 4h-2z"
          fill="#747474"/>
</svg>
